pen.svg

<svg fill="currentColor" viewBox="0 0 24 24"><path d="M20.71 7.04c-.34.34-.67.67-.68 1-.03.32.31.65.63.96.48.5.95.95.93 1.44s-.53 1-1.04 1.5l-4.13 4.14L15 14.66l4.25-4.24-.96-.96-1.42 1.41-3.75-3.75 3.84-3.83c.39-.39 1.04-.39 1.41 0l2.34 2.34c.39.37.39 1.02 0 1.41M3 17.25l9.56-9.57 3.75 3.75L6.75 21H3z"/></svg>

<svg  viewBox="0 0 24 24" fill="currentColor"><path  d="M20.71,7.04C20.37,7.38 20.04,7.71 20.03,8.04C20,8.36 20.34,8.69 20.66,9C21.14,9.5 21.61,9.95 21.59,10.44C21.57,10.93 21.06,11.44 20.55,11.94L16.42,16.08L15,14.66L19.25,10.42L18.29,9.46L16.87,10.87L13.12,7.12L16.96,3.29C17.35,2.9 18,2.9 18.37,3.29L20.71,5.63C21.1,6 21.1,6.65 20.71,7.04M3,17.25L12.56,7.68L16.31,11.43L6.75,21H3V17.25Z"/></svg>
